X: 23330
T: Lehane's
R: polka
M: 2/4
K: Gmajor
|:B/c/B/A/ GD|EG D2|DG AG/A/|BA AD'|
B/c/B/A/ GD|EG D2|DG AG/A/|BG G2:|
|:Bd gd|Bd e2|Bd e/f/g/e/|dB AG/A/|
Bd gd|Bd e/f/g/e/|dB AG/A/|BG G2:|

